X: 19422
T: Jacks On The Mountain, The
R: jig
M: 6/8
K: Gmajor
ged B2 A|GED G2 D|EAA A^GA|Bee e2 d|
ged BB/A/G|E^DE G2 =D|EAA EGG|dBA G2:|
GB/c/d fga|ged B2 e|dBA A^GA|BE^D =D2 E|
[1 GBd f2 a|ged e2 e|dBA A^GA|dBG G2:|
[2 DGG F/G/AB|dB/c/d g2 e|dBA Adc|B/c/dF G2||

